X: 39
T: Adana`nın Yolları Taşlık
C: (Anonim)
O: Turkey
F: http://compmusic.upf.edu/node/140
N: rast--turku--sofyan--adananin_yollari--
N: makam= rast
N: form= turku
N: usul= sofyan = 4/4
M: 4/4
L: 1/16
K: C _1/4B ^f  
Q: 1/4=72
%%MIDI tuningsystem comma53
c2{d}cB c2d2 c2B4A2  | A2{B}AG A2B2 A2G6  | \
w:  ARANAĞME  |   | 
c2{d}cB c2d2 c2B4A2  | 
w:  ARANAĞME  | 
A2{B}AG A2B2 A2G6  | c2{d}cB c2d2 c2B4A2  | \
w:   |   | 
A2{B}AG A2B2 A2G6  | 
w:   | 
z4 c2c2 c4 c4  | c2{d}cB c2d2 c2B2 B4  | \
w:  A da na nın   |  yol *  *  *  la rı  taş *  lık    | 
c2{d}cB c2d2 c2B2 B2A2  | 
w:  Yok  *  *  *  ce bi miz *  de   | 
A2G2 A2B2 A2G2 G4  | c2{d}cB c2d2 c2B2 B2A2  | \
w:  beş  *  pa ra  harç *  lık    |  Yok  *  *  *  ce bi miz *  de   | 
A2G2 A2B2 A2G2 G4  | 
w:  beş  *  pa ra  harç *  lık    | 
z4 c2c2 c4 c4  | c2{d}cB c2d2 c2B2 B4  | \
w:  El den  git ti   |  kah *  *  *  be  de  genç *  lik    | 
c2{d}cB c2d2 c2B4A2  | 
w:  A *  ğam  *  A da na lı   | 
A2{B}AG A2B2 A2G6  | c2{d}cB c2d2 c2B4A2  | \
w:  pa *  şam  *  A da na lı    |  Ev *  de  *  du ra mı yom   | 
A2{B}AG A2B2 A2G6  | 
w:  sa *  na  *  da da na lı    | 
c2{d}cB c2d2 c2B4A2  | A2{B}AG A2B2 A2G6  | \
w:  Se *  be *  bim  sen  ol dun   |  şiş *  man  *  de li kan lı    | 
G4 d4 d6e2  | =f2e2 d2^c2 _7/8B2A2 G4  | 
w:  Hey  gül lü   |  he le  he le  gül *  lü    | 
G4 d4 d6e2  | =f2e2 d2^c2 _7/8B2A2 G4  | \
w:  Kız  gül lü   |  he le  he le  gül *  lü    | 
G4 A2_7/8BA A8  | A2^c2 _7/8B2A2 G2F2 G4  | 
w:  Peş te *  *  ma  |  lı  püs *  *  kül *  lü    | 
G4 A2_7/8BA A8  | A2^c2 _7/8B2A2 G2F2 G4  | \
w:  Peş te *  *  ma  |  lı  püs *  *  kül *  lü    | 
c2{d}cB c2d2 c2B4A2  | A2{B}AG A2B2 A2G6  | 
w:  A *  ğam  *  A da na lı   |  pa *  şam  *  A da na lı    | 
c2{d}cB c2d2 c2B4A2  | A2{B}AG A2B2 A2G6  | \
w:  Ev *  de  *  du ra mı yom   |  sa *  na  *  da da na lı    | 
c2{d}cB c2d2 c2B4A2  | 
w:  Se *  be *  bim  sen_ ol dun   | 
A2{B}AG A2B2 A2G6  | c2{d}cB c2d2 c2B4A2  | \
w:  şiş *  man  *  de li kan lı    |  ARANAĞME  | 
A2{B}AG A2B2 A2G6  | 
w:   | 
c2{d}cB c2d2 c2B4A2  | A2{B}AG A2B2 A2G6  | \
w:  ARANAĞME  |   | 
c2{d}cB c2d2 c2B4A2  | 
w:   | 
A2{B}AG A2B2 A2G6  | z4 c2c2 c4 c4  | \
w:   |  A da na nın   | 
c2{d}cB c2d2 c2B2 B4  | c2{d}cB c2d2 c2B2 B2A2  | 
w:  yol *  *  *  la rı  taş *  lık    |  Yok  *  *  *  ce bi miz *  de   | 
A2G2 A2B2 A2G2 G4  | c2{d}cB c2d2 c2B2 B2A2  | \
w:  beş  *  pa ra  harç *  lık    |  Yok  *  *  *  ce bi miz *  de   | 
A2G2 A2B2 A2G2 G4  | 
w:  beş  *  pa ra  harç *  lık    | 
z4 c2c2 c4 c4  | c2{d}cB c2d2 c2B2 B4  | \
w:  El den  git ti   |  kah *  *  *  be  de  genç *  lik    | 
c2{d}cB c2d2 c2B4A2  | 
w:  A *  ğam  *  A da na lı   | 
A2{B}AG A2B2 A2G6  | c2{d}cB c2d2 c2B4A2  | \
w:  pa *  şam  *  A da na lı    |  Ev *  de  *  du ra mı yom   | 
A2{B}AG A2B2 A2G6  | 
w:  sa *  na  *  da da na lı    | 
c2{d}cB c2d2 c2B4A2  | A2{B}AG A2B2 A2G6  | \
w:  Se *  be *  bim  sen  ol dun   |  şiş *  man  *  de li kan lı    | 
G4 d4 d6e2  | =f2e2 d2^c2 _7/8B2A2 G4  | 
w:  Hey  gül lü   |  he le  he le  gül *  lü    | 
G4 d4 d6e2  | =f2e2 d2^c2 _7/8B2A2 G4  | \
w:  Kız  gül lü   |  he le  he le  gül *  lü    | 
G4 A2_7/8BA A8  | A2^c2 _7/8B2A2 G2F2 G4  | 
w:  Peş te *  *  ma  |  lı  püs *  *  kül *  lü    | 
G4 A2_7/8BA A8  | A2^c2 _7/8B2A2 G2F2 G4  | \
w:  Peş te *  *  ma  |  lı  püs *  *  kül *  lü    | 
c2{d}cB c2d2 c2B4A2  | A2{B}AG A2B2 A2G6  | 
w:  A *  ğam  *  A da na lı   |  pa *  şam  *  A da na lı    | 
c2{d}cB c2d2 c2B4A2  | A2{B}AG A2B2 A2G6  | \
w:  Ev *  de  *  du ra mı yom   |  sa *  na  *  da da na lı    | 
c2{d}cB c2d2 c2B4A2  | 
w:  Se *  be *  bim  sen_ ol dun   | 
A2{B}AG A2B2 A2G6  | |


